X:1
T:Title
%%score 1 2
L:1/8
Q:1/4=108
M:3/4
K:E
V:1 treble nm="Grand Piano, Soprano"
V:2 bass nm="Choir Pad, Hallelujah (Collins)"
V:1
 B,>B, [B,E]2 [B,E]2 | [B,F]2 [EG]4 | [B,F]>[B,E] [DF]2 [DF]2 | [EG]2 [FA]4 | %4
w: By~William~James~Kirkpatrick * * *||||
 [EG]>[DF] [EG]2 [EG]2 | [DA]2 [EB]4 | [EG]>[EG] [DF]2 [DB]2 | [C^A]2 [DB]4 | %8
w: ||||
 [EB]>[EB] [Ge]2 [Ge]2 | [Bd]>[Ac] [GB]2 [EG]2 | [EB]>[EB] [Ec]2 [EB]2 | [EG]2 [EG]2 [DF]2 | %12
w: ||||
 [DB]>[AB] [Ge]2 [Ge]2 | [Bd]>[Ac] [GB]2 [EG]2 | [EB]>[EB] [DB]2 [DA]2 | [DF]2 [B,E]4- | %16
w: ||||
 [B,E]4 z2 |] %17
w: |
V:2
 [E,G,]>[E,G,] [E,G,]2 [E,G,]2 | [E,A,]2 [E,B,]4 | [E,A,]>[E,G,] [B,,B,]2 [B,,B,]2 | %3
 [B,,B,]2 [B,,B,]4 | [B,,B,]>[B,,B,] [E,B,]2 [E,B,]2 | [F,B,]2 [G,B,]4 | %6
 [E,B,]>[E,B,] [F,B,]2 F,2 | F,2 [B,,F,]4 | [E,G,]>[E,G,] [E,B,]2 [E,B,]2 | %9
 [E,B,]>[E,B,] [E,E]2 [E,B,]2 | [E,G,]>[E,G,] A,2 [G,B,]2 | [E,B,]2 [B,,B,]2 [B,,B,]2 | %12
 B,>B, [E,B,]2 [E,B,]2 | [E,B,]>[E,B,] [E,E]2 [E,B,]2 | [E,G,]>[E,G,] [B,,F,]2 [B,,F,]2 | %15
 [B,,A,]2 [E,G,]4- | [E,G,]4 z2 |] %17

